X:1
T:Wallflowers
T:Wallflowers
T:Singing Games heard at Stainton, Sept. 1907 (3 of 4)
T:Transcribed by Simon Furey and Lewis Jones
C:Transcribed by Simon Furey and Lewis Jones
L:1/8
Q:1/4=116
M:2/4
K:G
V:1 treble 
V:1
"^(editorial suggestion)""^(a)" d2 B2 | d2 B2 | d2 ee | A4 |"^(b)" c2 A2 | c2 A2 | c2 Ac | B4 | %8
"^(c)" d2 B2 | d2 B2 | d2 ee | A4 |"^(d)" c2 A2 | c2 A2 | ccdc | BA G2 ||"^(a) var." d2 Bc | %17
 d2 Bc | d2 ee | A4 |"^(b) var." c2 AB | c2 AB | c2 Ac | B4 |"^(c) var." d2 Bc | d2 Bc | d2 ee | %27
 A4 |"^(d) var." c2 AB | c2 AB | ccdc | BA G2 |][M:2/4][Q:1/4=84]"^(editorial suggestion)" D | %33
 GBAd | B>A GD | ABcd | B3 D | GBAd | B/B/B/A/ GD | EAGF | G4 |: d>B d>B | d/d/d/B/ G2- :| G3 D | %44
 GB Ad |"^(a)" BA GD | EAGF | G3 || D | GBAd | B>A GD | AB cd | B3 D | GBAd | d/d/d/c/ GD | EA GF | %56
 G4 |: d>B d>B | d/d/d/B/ G2- :| G3 D | GBAd |"^(a) var." B/B/A/A/ GD | EA GF | G3 |] %64

